X:1
T:Title
%%score { 1 | 2 }
L:1/8
Q:1/4=100
M:6/8
K:Bb
V:1 treble nm="Grand Piano"
V:2 bass 
V:1
 [DF][DF][DF] [DF][DB][Ec] | [Fd]3 .[DB]3 | GGG B2 G | [DF]6 | [DF][DF][DF] [DF][FB]c | d3 .c3 | %6
w: Knowles~Shaw * * * * *||||||
 ccc B2 c | [Fd]6 | [DF][DF][DF] [DF][DB][Ec] | [Fd]3 .[DB]3 | GGG B2 G | [B,DF]6 | %12
w: ||||||
 [B,GB][B,GB][B,GB] [B,GB][B,FA][B,EG] |[M:7/8] [DF]3 [B,FB]3 z |[M:3/4] cc c d2 c | [DB]6 | %16
w: ||||
 [Fd][Fd] [Fd][Fd] [Ec][DB] | d3 .c3 | cc c .c3 | cB c .[Fd]3 | [Fd][Fd] [Fd][Fd] [Fc][FB] | %21
w: |||||
[M:7/8] [GB]3 G3 z | %22
w: |
[M:3/4] FF F d2 c[Q:1/4=97][Q:1/4=94][Q:1/4=91][Q:1/4=88][Q:1/4=84][Q:1/4=81][Q:1/4=78] | [DB]6 |] %24
w: ||
V:2
 [B,,B,][B,,B,][B,,B,] [B,,B,][B,,B,][B,,B,] | [B,,B,]3 .[B,,B,]3 | %2
 [E,B,E][E,B,E][E,B,E] [E,G,E]2 [E,B,E] | [B,,B,]6 | %4
 [B,,B,][B,,B,][B,,B,] [B,,B,][D,B,][K:treble][F,A,F] | [B,F]3 .[F,A,F]3 | %6
 [F,A,F][F,A,F][K:bass][F,A,F] [F,G,F]2 [F,A,F] | [B,,B,]6 | %8
 [B,,B,][B,,B,][B,,B,] [B,,B,][B,,B,][B,,B,] | [B,,B,]3 .[B,,B,]3 | %10
 [E,B,E][E,B,E][E,B,E] [G,E]2 [E,B,E] | B,,6 | E,E,E, E,E,G, |[M:7/8] B,3 D,3 z | %14
[M:3/4] [F,A,F][F,A,F] [F,A,F] [F,B,F]2 [F,A,E] | [B,,B,]6 | %16
 [B,,B,][B,,B,] [B,,B,][B,,B,] [B,,B,][B,,B,] | [F,B,F]3 .[F,A,F]3 | %18
 [F,A,F][F,A,F] [F,A,F] .[F,A,F]3 | [F,A,F][F,G,F] [F,A,F] .[B,,B,]3 | %20
 [B,,B,][B,,B,] [B,,B,][B,,B,] [C,A,][D,B,] |[M:7/8] [E,B,]3 [E,B,E]3 z | %22
[M:3/4] [F,B,D][F,B,D] [F,B,D] [F,B,F]2 [F,A,E] | [B,,B,]6 |] %24

